resources/icons/scopy-default/icons/logo analog.svg

<?xml version="1.0" encoding="UTF-8"?>
<svg width="80px" height="23px" viewBox="0 0 80 23" version="1.1" xmlns="http://www.w3.org/2000/svg" xmlns:xlink="http://www.w3.org/1999/xlink">
    <title>logo analog</title>
    <g id="Symbols" stroke="none" stroke-width="1" fill="none" fill-rule="evenodd" opacity="0.2">
        <g id="logo-analog" transform="translate(-40.000000, -76.000000)" fill="#FFFFFF">
            <path d="M40,76.1836755 L61.9071992,76.1836755 L61.9071992,98.0086882 L40,98.0086882 L40,76.1836755 L40,76.1836755 L40,76.1836755 Z M57.9919028,86.7186245 L43.9076044,79.1894717 L43.9076044,94.9955608 L57.9919028,86.7186245 L57.9919028,86.7186245 L57.9919028,86.7186245 Z M66.1071047,87.5250577 L69.5070282,87.5250577 C70.0957735,87.5054803 70.6842893,87.5697246 71.2531427,87.7156691 C71.7992656,87.8924391 72.2818881,88.2126442 72.6454191,88.6394016 C73.0515461,89.113478 73.3501312,89.6626581 73.5223224,90.2522678 C73.7396113,91.0190489 73.8406333,91.8115233 73.8223157,92.6055863 C73.8381474,93.3213668 73.7422291,94.0354132 73.5377067,94.724306 C73.3558818,95.3751767 73.0189457,95.9772892 72.5531135,96.4837965 C72.1946697,96.8507326 71.7449107,97.1255766 71.2454506,97.2828984 C70.712517,97.4379901 70.1561936,97.5073647 69.5993338,97.4881723 L66.1071047,97.4881723 L66.1071047,87.5250577 L66.1071047,87.5250577 L66.1071047,87.5250577 Z M67.9686013,89.211236 L67.9686013,95.8093252 L69.3531855,95.8093252 C69.730285,95.8239686 70.1077847,95.7919328 70.4762372,95.7140194 C70.7617502,95.644438 71.0222152,95.5025845 71.2300663,95.3034717 C71.4713929,95.0258179 71.6377661,94.6960997 71.7146708,94.3430831 C71.8575258,93.7444813 71.9221176,93.1313326 71.9069742,92.5176118 C71.9250185,91.9207406 71.8603595,91.3242092 71.7146708,90.7434589 C71.6208767,90.3852981 71.438939,90.0535745 71.1839135,89.7757392 C70.9523816,89.5408098 70.6523066,89.377384 70.3223945,89.3065417 C69.819261,89.2269198 69.3090892,89.1949953 68.7993518,89.211236 L67.9686013,89.211236 L67.9686013,89.211236 Z M75.2299763,97.4881723 L75.2299763,87.5250577 L82.0605918,87.5250577 L82.0605918,89.211236 L77.0914729,89.211236 L77.0914729,91.4252615 L81.7144458,91.4252615 L81.7144458,93.0967774 L77.0914729,93.0967774 L77.0914729,95.8093252 L82.2298188,95.8093252 L82.2298188,97.4881723 L75.2299763,97.4881723 L75.2299763,97.4881723 Z M85.9912726,97.4881723 L82.699039,87.5250577 L84.7143782,87.5250577 L87.045095,94.9002551 L89.2988904,87.5250577 L91.2680769,87.5250577 L87.9758433,97.4881723 L85.9912726,97.4881723 L85.9912726,97.4881723 Z M91.9911375,97.4881723 L91.9911375,87.5250577 L93.8526341,87.5250577 L93.8526341,97.4881723 L91.9911375,97.4881723 L91.9911375,97.4881723 Z M101.344773,93.8298984 L103.144733,94.4457201 L103.144733,94.4457201 C102.962427,95.3716249 102.481016,96.2200624 101.767841,96.8723506 C101.080057,97.4092602 100.210175,97.6882226 99.3217418,97.6567901 C98.1508571,97.68017 97.0356412,97.1812632 96.306425,96.3078474 C95.4681312,95.2419328 95.0513642,93.9282783 95.1295284,92.5982551 C95.0387298,91.2180618 95.4578395,89.8511315 96.3141172,88.7347073 C97.0693448,87.8322447 98.2264899,87.3215651 99.4371238,87.3564398 C100.474337,87.3210891 101.476479,87.7170495 102.183216,88.4414589 C102.653526,88.9669843 102.976394,89.5975552 103.121656,90.2742615 L103.121656,90.2742615 L101.283236,90.7507901 L101.283236,90.7507901 C101.202293,90.2821083 100.961709,89.8518583 100.598636,89.526478 C100.257206,89.2283228 99.8077435,89.0680113 99.3448182,89.0792742 C98.6879037,89.0660318 98.0663503,89.3622265 97.6833171,89.8710449 C97.1876581,90.6418154 96.9639228,91.5435784 97.0448699,92.4442997 C96.9584594,93.3817177 97.178807,94.3216341 97.675625,95.1348538 C98.0406172,95.6497566 98.6544895,95.9533299 99.3063575,95.9412869 C99.786241,95.9475591 100.246801,95.761338 100.57556,95.4281022 C100.991572,94.9792295 101.259176,94.423226 101.344773,93.8298984 L101.344773,93.8298984 L101.344773,93.8298984 Z M104.57547,97.4881723 L104.57547,87.5250577 L111.398393,87.5250577 L111.398393,89.211236 L106.429274,89.211236 L106.429274,91.4252615 L111.052247,91.4252615 L111.052247,93.0967774 L106.429274,93.0967774 L106.429274,95.8093252 L111.575312,95.8093252 L111.575312,97.4881723 L104.57547,97.4881723 L104.57547,97.4881723 Z M112.513753,94.2477774 L114.321404,94.0571659 L114.321404,94.0571659 C114.372888,94.5961154 114.604806,95.1050121 114.982928,95.5087455 C115.348578,95.8283855 115.833537,95.9947789 116.329051,95.9706118 C116.820421,96.0064093 117.306808,95.8562775 117.682867,95.5527328 C117.973651,95.3108544 118.139363,94.9601833 118.136703,94.5923443 C118.145108,94.3793454 118.077298,94.1699493 117.9444,93.9985162 C117.770884,93.794675 117.538079,93.6442032 117.275184,93.5659748 C117.059804,93.4780003 116.559815,93.3387073 115.790602,93.1261022 C115.015485,92.9710266 114.293506,92.6332767 113.690649,92.1437201 C112.758272,91.2217095 112.576493,89.8237569 113.244505,88.7127137 C113.508778,88.2715342 113.908864,87.9183713 114.390633,87.7010067 C114.9613,87.4588171 115.581497,87.3410987 116.205977,87.3564398 C117.154891,87.2909 118.092432,87.5861141 118.813611,88.1775354 C119.414819,88.7651834 119.746798,89.5561883 119.736667,90.3768984 L119.736667,90.3768984 L117.87517,90.4648729 L117.87517,90.4648729 C117.846239,90.04937 117.663623,89.6571134 117.359797,89.3578602 C117.023827,89.1123268 116.605236,88.9923809 116.182901,89.0206245 C115.729116,88.9980113 115.28098,89.1248498 114.913699,89.3798538 C114.719873,89.5329343 114.611832,89.7632649 114.621397,90.0030067 C114.61928,90.2319101 114.720076,90.4507281 114.898314,90.6041659 C115.412,90.9384772 115.993875,91.1658018 116.605968,91.2713061 C117.305111,91.4265845 117.980019,91.6681077 118.613615,91.9897647 C119.040369,92.2350338 119.390845,92.5842482 119.628977,93.0014717 C119.889922,93.4939159 120.016882,94.0409491 119.998199,94.5923443 C119.999795,95.1522853 119.848708,95.7030135 119.559748,96.1905481 C119.279802,96.6792295 118.843136,97.0697166 118.313622,97.304892 C117.683079,97.5642208 116.999997,97.6869149 116.313667,97.6641213 C115.332063,97.7297147 114.364195,97.4151813 113.629112,96.7917073 C112.951078,96.0975333 112.555525,95.1953496 112.513753,94.2477774 L112.513753,94.2477774 L112.513753,94.2477774 Z M74.9376752,86.1467902 L72.9223359,86.1467902 L72.1223539,83.8814462 L68.4532058,83.8814462 L67.6993766,86.1467902 L65.7301901,86.1467902 L69.3070327,76.1836755 L71.2608349,76.1836755 L74.9376752,86.1467902 L74.9376752,86.1467902 L74.9376752,86.1467902 Z M71.5300596,82.2099303 L70.2608574,78.5076692 L69.0224237,82.2099303 L71.5300596,82.2099303 L71.5300596,82.2099303 Z M75.7684257,86.1467902 L75.7684257,76.1836755 L77.5760774,76.1836755 L81.329839,82.8404144 L81.329839,76.1836755 L83.0528772,76.1836755 L83.0528772,86.1467902 L81.1913806,86.1467902 L77.4914639,79.651338 L77.4914639,86.1467902 L75.7684257,86.1467902 L75.7684257,86.1467902 Z M93.1218813,86.1467902 L91.1065421,86.1467902 L90.2988679,83.8814462 L86.6297197,83.8814462 L85.8758906,86.1467902 L83.9143962,86.1467902 L87.4835467,76.1836755 L89.445041,76.1836755 L93.1218813,86.1467902 L93.1218813,86.1467902 L93.1218813,86.1467902 Z M89.7065736,82.2099303 L88.4450635,78.5076692 L87.2066298,82.2099303 L89.7065736,82.2099303 L89.7065736,82.2099303 Z M93.9834004,86.1467902 L93.9834004,76.2643189 L95.8372048,76.2643189 L95.8372048,84.467943 L100.444793,84.467943 L100.444793,86.1467902 L93.9834004,86.1467902 L93.9834004,86.1467902 Z M101.221699,81.2275481 C101.194922,80.3570527 101.338388,79.4894117 101.644766,78.6689558 C101.846929,78.1719097 102.135585,77.7109119 102.498593,77.3053507 C102.821078,76.9292059 103.225202,76.624078 103.683182,76.4109431 C104.301864,76.1370868 104.978054,76.0016747 105.660061,76.0150577 C106.90478,75.9684115 108.102497,76.4715453 108.906141,77.3786628 C110.523788,79.6694991 110.526828,82.66532 108.913834,84.9591341 C108.07965,85.8234551 106.903784,86.3152969 105.671599,86.3152969 C104.439414,86.3152969 103.263547,85.8234551 102.429364,84.9591341 C101.567661,83.8948556 101.138742,82.5695332 101.221699,81.2275481 L101.221699,81.2275481 L101.221699,81.2275481 Z M103.129348,81.1615672 C103.066237,82.069528 103.320502,82.9718367 103.852409,83.7274908 C104.278395,84.2837111 104.960663,84.6088385 105.683137,84.5999048 C106.401435,84.6091336 107.079187,84.2834213 107.498481,83.7274908 C108.027094,82.9599874 108.275796,82.0479284 108.206157,81.1322424 C108.276199,80.2300847 108.032933,79.3310164 107.513865,78.5736501 C107.066296,78.0382011 106.386161,77.7274997 105.667872,77.7303581 C104.949584,77.7332165 104.272194,78.0493201 103.829333,78.5883125 C103.306551,79.3498275 103.060624,80.2538944 103.129348,81.1615672 L103.129348,81.1615672 L103.129348,81.1615672 Z M115.67522,82.4885163 L115.67522,80.8023379 L119.667438,80.8023379 L119.667438,84.7758539 L119.667438,84.7758539 C119.188357,85.2436082 118.611927,85.610696 117.975168,85.8535417 C117.271188,86.1551624 116.508593,86.3125137 115.736757,86.315408 C114.851909,86.3363703 113.980042,86.1095138 113.229121,85.6629303 C112.5036,85.2096633 111.942247,84.5543347 111.621465,83.7861405 C111.255922,82.9452001 111.072761,82.042441 111.083016,81.1322424 C111.064749,80.179882 111.269727,79.2356415 111.683002,78.3683762 C112.052667,77.590046 112.668614,76.9414752 113.444501,76.51358 C114.113721,76.1595854 114.871937,75.9871662 115.636759,76.0150577 C116.595258,75.9623611 117.541946,76.237982 118.30593,76.792166 C118.971396,77.3498065 119.409801,78.1128099 119.544364,78.9475418 L119.544364,78.9475418 L117.705943,79.3214335 L117.705943,79.3214335 C117.598304,78.8688223 117.342379,78.4605823 116.975191,78.1557711 C116.596473,77.8665408 116.121815,77.7157455 115.636759,77.7305609 C114.891184,77.7047033 114.176182,78.014208 113.706033,78.5663188 C113.177306,79.2928078 112.924907,80.1696736 112.990665,81.0515991 C112.920991,81.99109 113.177795,82.9263111 113.721418,83.7128284 C114.163477,84.2879307 114.873643,84.619502 115.621375,84.5999048 C116.024878,84.5937722 116.422789,84.5089422 116.790579,84.3506437 C117.153076,84.1981542 117.49002,83.9955926 117.790557,83.7494844 L117.790557,83.7494844 L117.790557,82.4885163 L115.67522,82.4885163 L115.67522,82.4885163 Z"></path>
        </g>
    </g>
</svg>

<?xml version="1.0" encoding="UTF-8"?>
<svg width="80px" height="23px" version="1.1" viewBox="0 0 80 23" xmlns="http://www.w3.org/2000/svg">
 <g fill="#fff" opacity=".2" fill-rule="evenodd">
  <g transform="translate(-40 -76)">
   <path d="m40 76.184h21.907v21.825h-21.907v-21.825zm17.992 10.535-14.084-7.5292v15.806l14.084-8.2769zm8.1152 0.80643h3.3999c0.58875-0.019577 1.1773 0.044667 1.7461 0.19061 0.54612 0.17677 1.0287 0.49698 1.3923 0.92373 0.40613 0.47408 0.70471 1.0233 0.8769 1.6129 0.21729 0.76678 0.31831 1.5593 0.29999 2.3533 0.015832 0.71578-0.080087 1.4298-0.28461 2.1187-0.18182 0.65087-0.51876 1.253-0.98459 1.7595-0.35844 0.36694-0.8082 0.64178-1.3077 0.7991-0.53293 0.15509-1.0893 0.22447-1.6461 0.20527h-3.4922v-9.9631zm1.8615 1.6862v6.5981h1.3846c0.3771 0.014643 0.7546-0.017392 1.1231-0.095306 0.28551-0.069581 0.54598-0.21143 0.75383-0.41055 0.24133-0.27765 0.4077-0.60737 0.4846-0.96039 0.14286-0.5986 0.20745-1.2118 0.1923-1.8255 0.018044-0.59687-0.046615-1.1934-0.1923-1.7742-0.093794-0.35816-0.27573-0.68988-0.53076-0.96772-0.23153-0.23493-0.53161-0.39836-0.86152-0.4692-0.50313-0.079622-1.0133-0.11155-1.523-0.095306h-0.83075zm7.2614 8.2769v-9.9631h6.8306v1.6862h-4.9691v2.214h4.623v1.6715h-4.623v2.7125h5.1383v1.6788h-6.9998zm10.761 0-3.2922-9.9631h2.0153l2.3307 7.3752 2.2538-7.3752h1.9692l-3.2922 9.9631h-1.9846zm5.9999 0v-9.9631h1.8615v9.9631h-1.8615zm9.3536-3.6583 1.8 0.61582c-0.18231 0.9259-0.66372 1.7743-1.3769 2.4266-0.68778 0.53691-1.5577 0.81587-2.4461 0.78444-1.1709 0.02338-2.2861-0.47553-3.0153-1.3489-0.83829-1.0659-1.2551-2.3796-1.1769-3.7096-0.090799-1.3802 0.32831-2.7471 1.1846-3.8635 0.75523-0.90246 1.9124-1.4131 3.123-1.3783 1.0372-0.035351 2.0394 0.36061 2.7461 1.085 0.47031 0.52553 0.79318 1.1561 0.93844 1.8328l-1.8384 0.47653c-0.080943-0.46868-0.32153-0.89893-0.6846-1.2243-0.34143-0.29816-0.79089-0.45847-1.2538-0.4472-0.65691-0.013242-1.2785 0.28295-1.6615 0.79177-0.49566 0.77077-0.71939 1.6725-0.63845 2.5733-0.08641 0.93742 0.13394 1.8773 0.63076 2.6906 0.36499 0.5149 0.97886 0.81848 1.6307 0.80643 0.47988 0.0062722 0.94044-0.17995 1.2692-0.51318 0.41601-0.44887 0.68362-1.0049 0.76921-1.5982zm3.2307 3.6583v-9.9631h6.8229v1.6862h-4.9691v2.214h4.623v1.6715h-4.623v2.7125h5.146v1.6788h-6.9998zm7.9383-3.2404 1.8077-0.19061c0.051484 0.53895 0.2834 1.0478 0.66152 1.4516 0.36565 0.31964 0.85061 0.48603 1.3461 0.46187 0.49137 0.035798 0.97776-0.11433 1.3538-0.41788 0.29078-0.24188 0.4565-0.59255 0.45384-0.96039 0.008405-0.213-0.059405-0.4224-0.1923-0.59383-0.17352-0.20384-0.40632-0.35431-0.66922-0.43254-0.21538-0.087974-0.71537-0.22727-1.4846-0.43987-0.77512-0.15508-1.4971-0.49283-2.1-0.98238-0.93238-0.92201-1.1142-2.32-0.44614-3.431 0.26427-0.44118 0.66436-0.79434 1.1461-1.0117 0.57067-0.24219 1.1909-0.35991 1.8153-0.34457 0.94891-0.06554 1.8865 0.22967 2.6076 0.8211 0.60121 0.58765 0.93319 1.3787 0.92306 2.1994l-1.8615 0.087974c-0.028931-0.4155-0.21155-0.80776-0.51537-1.107-0.33597-0.24553-0.75456-0.36548-1.1769-0.33724-0.45378-0.022613-0.90192 0.10423-1.2692 0.35923-0.19383 0.15308-0.30187 0.38341-0.2923 0.62315-0.002117 0.2289 0.098679 0.44772 0.27692 0.60116 0.51369 0.33431 1.0956 0.56164 1.7077 0.66714 0.69914 0.15528 1.3741 0.3968 2.0076 0.71846 0.42675 0.24527 0.77723 0.59448 1.0154 1.0117 0.26094 0.49244 0.3879 1.0395 0.36922 1.5909 0.001596 0.55994-0.14949 1.1107-0.43845 1.5982-0.27995 0.48868-0.71661 0.87917-1.2461 1.1143-0.63054 0.25933-1.3136 0.38202-2 0.35923-0.9816 0.065593-1.9495-0.24894-2.6846-0.87241-0.67803-0.69417-1.0736-1.5964-1.1154-2.5439zm-37.576-8.101h-2.0153l-0.79998-2.2653h-3.6691l-0.75383 2.2653h-1.9692l3.5768-9.9631h1.9538l3.6768 9.9631zm-3.4076-3.9369-1.2692-3.7023-1.2384 3.7023h2.5076zm4.2384 3.9369v-9.9631h1.8077l3.7538 6.6567v-6.6567h1.723v9.9631h-1.8615l-3.6999-6.4955v6.4955h-1.723zm17.353 0h-2.0153l-0.80767-2.2653h-3.6691l-0.75383 2.2653h-1.9615l3.5692-9.9631h1.9615l3.6768 9.9631zm-3.4153-3.9369-1.2615-3.7023-1.2384 3.7023h2.4999zm4.2768 3.9369v-9.8825h1.8538v8.2036h4.6076v1.6788h-6.4614zm7.2383-4.9192c-0.026777-0.8705 0.11669-1.7381 0.42307-2.5586 0.20216-0.49705 0.49082-0.95804 0.85383-1.3636 0.32248-0.37614 0.72661-0.68127 1.1846-0.89441 0.61868-0.27386 1.2949-0.40927 1.9769-0.39589 1.2447-0.046646 2.4424 0.45649 3.2461 1.3636 1.6176 2.2908 1.6207 5.2867 0.007693 7.5805-0.83418 0.86432-2.01 1.3562-3.2422 1.3562s-2.4081-0.49184-3.2422-1.3562c-0.8617-1.0643-1.2906-2.3896-1.2077-3.7316zm1.9076-0.065981c-0.063111 0.90796 0.19115 1.8103 0.72306 2.5659 0.42599 0.55622 1.1083 0.88135 1.8307 0.87241 0.7183 0.0092288 1.396-0.31648 1.8153-0.87241 0.52861-0.7675 0.77732-1.6796 0.70768-2.5952 0.070042-0.90216-0.17322-1.8012-0.69229-2.5586-0.44757-0.53545-1.1277-0.84615-1.846-0.84329-0.71829 0.0028584-1.3957 0.31896-1.8385 0.85795-0.52278 0.76152-0.76871 1.6656-0.69998 2.5733zm12.546 1.3269v-1.6862h3.9922v3.9735c-0.47908 0.46775-1.0555 0.83484-1.6923 1.0777-0.70398 0.30162-1.4666 0.45897-2.2384 0.46187-0.88485 0.020962-1.7567-0.20589-2.5076-0.65248-0.72552-0.45327-1.2869-1.1086-1.6077-1.8768-0.36554-0.84094-0.5487-1.7437-0.53845-2.6539-0.018267-0.95236 0.18671-1.8966 0.59999-2.7639 0.36966-0.77833 0.98561-1.4269 1.7615-1.8548 0.66922-0.35399 1.4274-0.52641 2.1923-0.49852 0.9585-0.052697 1.9052 0.22292 2.6692 0.77711 0.66547 0.55764 1.1039 1.3206 1.2384 2.1554l-1.8384 0.37389c-0.10764-0.45261-0.36356-0.86085-0.73075-1.1657-0.37872-0.28923-0.85338-0.44003-1.3384-0.42521-0.74558-0.025858-1.4606 0.28365-1.9307 0.83576-0.52873 0.72649-0.78113 1.6034-0.71537 2.4853-0.069674 0.93949 0.18713 1.8747 0.73075 2.6612 0.44206 0.5751 1.1522 0.90667 1.9 0.88708 0.4035-0.0061326 0.80141-0.090963 1.1692-0.24926 0.3625-0.15249 0.69944-0.35505 0.99998-0.60116v-1.261h-2.1153z"/>
  </g>
 </g>
</svg>
